X:2727
L:1/8
M:6/8
K:C
 g | gfe edc | cde efg | fed dcd | (e3 c2) g | gfe edc | cde efg | fed dcd | (c3 c3) || d | 
 dcB BAG | c2 e g2 f | fed dcd | (e3 c2) d | dcB BAG | c2 e g2 f | fed dcd | (c3 c) z || c3 _e3 | 
 c3 _e3 | d2 G g2 f | ede c3 | c3 _e3 | c3 _e3 | ded G2 B |1 [_Ec]3 [Ec] z ||2 [_Ec]3 [Ec]2 ||

